!!!!SEGMENT: pl-wtm--r-2295_troschel-wilhelm--przedza-zycia.krn
!!!cenid: 18xx:2256
!!!COM: Troschel, Wilhelm
!!!COM-rismid: pe30024099
!!!CDT: 1823/08/23-1887/03/02
!!!CNT: Polish
!!!OTL: Przędza życia
!!!PDT:
!!!AGN:
!!!SMS-siglum: PL-Wtm
!!!SMS-shelfmark: R 2295
!!!SMS-shelfwork: W
!!!SMS-variant:
!!!SMS-altvar:
!!!NIFC-rismid: 1001113833
!!!URL-scan: http://repozytorium.nifc.pl/skany/pl-wtm-nut--r2295
!!!ONB-nifc:
!!!OMD: Moderato
**kern	**kern	**dynam	**kern	**text	**text	**dynam
*part2	*part2	*part2	*part1	*part1	*part1	*part1
*staff3	*staff2	*	*staff1	*staff1	*staff1	*
*	*I"Fortepian	*	*I"Śpiew	*	*	*
*clefF4	*clefG2	*	*clefG2	*	*	*
*k[]	*k[]	*	*k[]	*	*	*
*A:	*A:	*	*A:	*	*	*
*M2/4	*M2/4	*	*M2/4	*	*	*
*>[A,B,B1,B,B2,C]	*>[A,B,B1,B,B2,C]	*	*>[A,B,B1,B,B2,C]	*	*	*
=1	=1	=1	=1	=1	=1	=1
*>A	*>A	*	*>A	*	*	*
*all\right	*all\right	*	*all\right	*	*	*
!	!LO:TUP:a:problem:klamra łukowa	!	!	!	!	!
!LO:TX:b:t=Lewy pedał	!	!LO:DY:rj	!	!	!	!
8G#X'\L 8d 8f	24b\LL	p	2r	.	.	.
.	24cc\	.	.	.	.	.
.	24b\JJ	.	.	.	.	.
!	!LO:TUP:a:problem:klamra łukowa	!	!	!	!	!
8A'\J 8c 8e	24a\LL	.	.	.	.	.
.	24b\	.	.	.	.	.
.	24a\JJ	.	.	.	.	.
!	!LO:TUP:b:problem:klamra łukowa	!	!	!	!	!
8D#X'\L 8A 8c	24f#X/LL	.	.	.	.	.
.	24g#X/	.	.	.	.	.
.	24f#/JJ	.	.	.	.	.
!	!LO:TUP:b:problem:klamra łukowa	!	!	!	!	!
8E'\J 8G#X 8B	24e/LL	.	.	.	.	.
.	24d#X/	.	.	.	.	.
.	24e/JJ	.	.	.	.	.
=2	=2	=2	=2	=2	=2	=2
!	!LO:TUP:b:problem:klamra łukowa	!	!	!	!	!
8D'\L 8G#X 8B	24fn/LL	.	2r	.	.	.
.	24g/	.	.	.	.	.
.	24f/JJ	.	.	.	.	.
!	!LO:TUP:b:problem:klamra łukowa	!	!	!	!	!
8C'\J 8A	24e/LL	.	.	.	.	.
.	24d/	.	.	.	.	.
.	24c/JJ	.	.	.	.	.
!	!LO:TUP:b:problem:klamra łukowa	!	!	!	!	!
8BB'\L 8A	24e/LL	.	.	.	.	.
.	24f/	.	.	.	.	.
.	24e/JJ	.	.	.	.	.
!	!LO:TUP:b:problem:klamra łukowa	!	!	!	!	!
8E'\J 8G#	24d/LL	.	.	.	.	.
.	24c/	.	.	.	.	.
.	24B/JJ	.	.	.	.	.
=3||	=3||	=3||	=3||	=3||	=3||	=3||
*>B	*>B	*	*>B	*	*	*
*^	*	*	*	*	*	*
*	*2\right	*	*	*	*	*	*
!	!	!LO:TUP:a:problem:klamra łukowa	!	!	!	!	!LO:DY:b:rj
8r	2AA\	24r	.	8e/	Kie-	Gdy	p
.	.	24A/LL	.	.	.	.	.
.	.	24c/JJ	.	.	.	.	.
*	*	*Xtuplet	*	*	*	*	*
!	!	!LO:TUP:problem:brak klamry:global	!	!	!	!	!
8E/L	.	24e/LL	.	8e/	-dy	dwu-	.
.	.	24c/	.	.	.	.	.
.	.	24A/JJ	.	.	.	.	.
8F/	.	24d/LL	.	8d/	dzie-	-dzies-	.
.	.	24B/	.	.	.	.	.
.	.	24A/JJ	.	.	.	.	.
8D/J	.	24f/LL	.	8f/	-ckiem	-te	.
.	.	24B/	.	.	.	.	.
.	.	24A/JJ	.	.	.	.	.
!!LO:LB:g=original
=4	=4	=4	=4	=4	=4	=4	=4
8r	2AA\	24r	.	8e/	ma-	prze-	.
.	.	24A/LL	.	.	.	.	.
.	.	24c/JJ	.	.	.	.	.
8E/L	.	24e/LL	.	16a/LL	-łem	-szło	.
.	.	24c/	.	.	.	.	.
.	.	.	.	16b/JJ	.	.	.
.	.	24A/JJ	.	.	.	.	.
8A/	.	24r	.	8cc\	by-	la-	.
.	.	24c/LL	.	.	.	.	.
.	.	24e/JJ	.	.	.	.	.
8E/J	.	24a/LL	.	8a\	-łam	-to	.
.	.	24e/	.	.	.	.	.
.	.	24c/JJ	.	.	.	.	.
=5	=5	=5	=5	=5	=5	=5	=5
8r	2AA\	24r	.	16b\LL	snu-	Zgię-	.
.	.	24d/LL	.	.	.	.	.
.	.	.	.	16cc\JJ	.	.	.
.	.	24e/JJ	.	.	.	.	.
8E/L	.	24g#X/LL	.	16b\LL	-łam	-ła	.
.	.	24e/	.	.	.	.	.
.	.	.	.	16a\JJ	.	.	.
.	.	24d/JJ	.	.	.	.	.
8B/	.	24r	.	8g#X/	ży-	tro-	.
.	.	24d/LL	.	.	.	.	.
.	.	24e/JJ	.	.	.	.	.
8E/J	.	24g#/LL	.	8b/	-cia	-ska	.
.	.	24e/	.	.	.	.	.
.	.	24d/JJ	.	.	.	.	.
=6	=6	=6	=6	=6	=6	=6	=6
8r	2AA\	24r	.	8a/	przę-	po-	.
.	.	24c/LL	.	.	.	.	.
!	!	!	!LO:HP:b=2	!	!	!	!
.	.	24e/JJ	<	.	.	.	.
8A/L	.	24a/LL	.	8a/	-dzę	-stać	.
.	.	24e/	[	.	.	.	.
.	.	24c/JJ	.	.	.	.	.
!	!	!	!LO:HP:b=2	!	!	!	!
8G/	.	24r	>	8g/	zło-	wa-	.
.	.	24c/LL	.	.	.	.	.
.	.	24e/JJ	.	.	.	.	.
8F/J	.	24a/LL	]	8f/	-tą,	-bną,	.
.	.	24d/	.	.	.	.	.
.	.	24B/JJ	.	.	.	.	.
!!LO:LB:g=original
=7	=7	=7	=7	=7	=7	=7	=7
8r	2AA\	24r	.	8e/	O	Za-	.
.	.	24A/LL	.	.	.	.	.
.	.	24c/JJ	.	.	.	.	.
8E/L	.	24e/LL	.	8e/	A-	-du-	.
.	.	24c/	.	.	.	.	.
.	.	24A/JJ	.	.	.	.	.
8F/	.	24d/LL	.	8d/	-nioł-	-ma-	.
.	.	24B/	.	.	.	.	.
.	.	24A/JJ	.	.	.	.	.
8D/J	.	24f/LL	.	8f/	-kach	-na	.
.	.	24B/	.	.	.	.	.
.	.	24A/JJ	.	.	.	.	.
=8	=8	=8	=8	=8	=8	=8	=8
8r	2AA\	24r	.	16e/LL	kwiat-	przed	.
.	.	24A/LL	.	.	.	.	.
.	.	.	.	16f/JJ	.	.	.
.	.	24c/JJ	.	.	.	.	.
8E/L	.	24e/LL	.	16e/LL	-kach	mą	.
.	.	24c/	.	.	.	.	.
.	.	.	.	16a/JJ	.	.	.
.	.	24A/JJ	.	.	.	.	.
8A/	.	24r	.	8cc\	śni-	cha-	.
.	.	24c/LL	.	.	.	.	.
.	.	24e/JJ	.	.	.	.	.
8E/J	.	24a/LL	.	8a\	-łam	-tą	.
.	.	24e/	.	.	.	.	.
.	.	24c/JJ	.	.	.	.	.
=9	=9	=9	=9	=9	=9	=9	=9
*	*	*	*	*^	*	*	*
8r	2BB\	24r	.	8r	8ryy	.	.	.
.	.	24B/LL	.	.	.	.	.	.
.	.	24e/JJ	.	.	.	.	.	.
8E/L	.	24g/LL	.	16g/LL	16g\	u-	Przęd-	.
.	.	24e/	.	.	.	.	.	.
.	.	.	.	16a/JJ	16a\	.	-łam	.
!	!	!	!LO:HP:b=2:t=dim&colon;	!	!	!	!	!
.	.	24B/JJ	>	.	.	.	.	.
8G/	.	24r	.	(8b\	8ryy	-śpio-	smut-	.
.	.	24B/LL	.	.	.	.	.	.
.	.	24e/JJ	.	.	.	.	.	.
8E/J	.	24g/LL	.	8e/)	8ryy	-na	-nie	.
.	.	24e/	.	.	.	.	.	.
.	.	24B/JJ	.	.	.	.	.	.
*	*	*	*	*v	*v	*	*	*
!!LO:LB:g=original
=10	=10	=10	=10	=10	=10	=10	=10
.	.	.	.	8qg/	.	.	.
8BB/L	4BB\	24r	.	16f#X/LL	Ma-	nić	.
.	.	24B/LL	.	.	.	.	.
.	.	.	.	16e/JJ	.	.	.
.	.	24d#X/JJ	.	.	.	.	.
8A/J	.	24f#X/LL	.	16f#/LL	-tki	je-	.
.	.	24d#/	.	.	.	.	.
.	.	.	.	16g/JJ	piesz-	.	.
.	.	24B/JJ	.	.	.	.	.
4G/	4E\	24r	.	8e/	-czo-	-dwa-	.
.	.	24B/LL	.	.	.	.	.
.	.	24e/JJ	.	.	.	.	.
.	.	24g/LL	.	8e/	-tą.	-bną.	.
.	.	24e/	.	.	.	.	.
.	.	24B/JJ	.	.	.	.	.
*v	*v	*	*	*	*	*	*
=11	=11	=11	=11	=11	=11	=11
*	*tuplet	*	*	*	*	*
!	!LO:TUP:a:problem:klamra łukowa	!	!	!	!	!
4r	24e^/LL	.	2r	.	.	.
.	24d#X/	.	.	.	.	.
.	24e/JJ	.	.	.	.	.
*	*Xtuplet	*	*	*	*	*
.	24fn/LL	.	.	.	.	.
.	24e/	.	.	.	.	.
.	24d#/JJ	.	.	.	.	.
4EE^/ 4GG#X	24e/LL	.	.	.	.	.
.	24d#/	<	.	.	.	.
.	24e/JJ	.	.	.	.	.
.	24f/LL	.	.	.	.	.
.	24e/	.	.	.	.	.
.	24d#/JJ	.	.	.	.	.
=12	=12	=12	=12	=12	=12	=12
(8FF#X/L 8AA	24e/LL	.	2r	.	.	.
.	24d#X/	.	.	.	.	.
.	24e/JJ	.	.	.	.	.
8GG/ 8AA#X	24f/LL	.	.	.	.	.
.	24e/	[	.	.	.	.
.	24d#/JJ	.	.	.	.	.
8GG#X/ 8BB	24e/LL	.	.	.	.	.
.	24d#/	.	.	.	.	.
.	24e/JJ	.	.	.	.	.
8AAn/J) 8C	24f/LL	.	.	.	.	.
.	24e/	.	.	.	.	.
.	24d#/JJ	.	.	.	.	.
!!LO:PB:g=original
=13	=13	=13	=13	=13	=13	=13
*	*tuplet	*	*	*	*	*
!	!LO:TUP:b:problem:klamra łukowa	!	!	!	!	!
8BB'\L	24r	.	8e/	W_lat	Dziś,	.
.	24dn/LL	.	.	.	.	.
.	24e/JJ	.	.	.	.	.
*	*Xtuplet	*	*	*	*	*
8E'\J	24g#X/LL	.	8b\	sze-	po	.
.	24e/	.	.	.	.	.
.	24d/JJ	.	.	.	.	.
8EE'\L	24r	.	8cc\	-sna-	la-	.
.	24d/LL	.	.	.	.	.
.	24e/JJ	.	.	.	.	.
8E'\J	24g#/LL	.	8g#X/	-stu	-tach	.
.	24e/	.	.	.	.	.
.	24d/JJ	.	.	.	.	.
=14	=14	=14	=14	=14	=14	=14
8AA'\L	24r	.	16a/LL	lu-	i	.
.	24c/LL	.	.	.	.	.
.	.	.	16b/JJ	.	.	.
!	!	!LO:HP:t=crescendo.	!	!	!	!
.	24e/JJ	<	.	.	.	.
!	!	!	!	!	!	!LO:HP:a:t=crescendo
8E'\J	24a/LL	.	16a/LL	-bym	łzach	<
.	24e/	.	.	.	.	.
.	.	.	16g#X/JJ	.	.	.
.	24c/JJ	.	.	.	.	.
8C'\L	24r	.	8a/	ran-	wie-	.
.	24c/LL	.	.	.	.	.
.	24e/JJ	.	.	.	.	.
8E'\J	24a/LL	.	8a/	-ku	-lu	.
.	24e/	.	.	.	.	.
.	24c/JJ	.	.	.	.	.
=15	=15	=15	=15	=15	=15	=15
8D'\L	24r	.	8gn/	Już	Za-	.
.	24f/LL	.	.	.	.	.
.	24g/JJ	.	.	.	.	.
8G'\J	24b/LL	.	8dd\	ma-	-pi-	.
.	24g/	.	.	.	.	.
.	24f/JJ	.	.	.	.	.
8GG|\L	24r	.	(>8ee\	-rzy-	-sa-	.
.	24f/LL	.	.	.	.	.
.	24g/JJ	.	.	.	.	.
8G'\J	24b/LL	.	8b\)	-łam	-nych	.
.	24g/	.	.	.	.	.
.	24f/JJ	.	.	.	.	.
!!LO:LB:g=original
=16	=16	=16	=16	=16	=16	=16
8C'\L	24r	.	16cc\LL	nie	w_ży-	.
.	24e/LL	.	.	.	.	.
.	.	.	16dd\JJ	.	.	.
.	24g/JJ	.	.	.	.	.
8G'\J	24cc/LL	.	16cc\LL	raz	-cia	.
.	24g/	.	.	.	.	.
.	.	.	16b\JJ	.	.	.
.	24e/JJ	.	.	.	.	.
8C'\L	24r	.	8cc\	skry-	Księ-	.
.	24e/LL	.	.	.	.	.
.	24g/JJ	.	.	.	.	.
8G'\J	24cc/LL	.	8cc\	-cie	-dze	.
.	24g/	.	.	.	.	.
.	24e/JJ	.	.	.	.	.
=17	=17	=17	=17	=17	=17	=17
8D'\L	24r	.	8b\	O	Bez	.
.	24f/LL	.	.	.	.	.
.	24g#X/JJ	.	.	.	.	.
8d'\J	24b/LL	.	8ff\	mi-	ma-	.
.	24g#/	.	.	.	.	.
.	24f/JJ	.	.	.	.	.
8c'\L	24r	.	(8ee\	-łoś-	-rze-	.
.	24e/LL	.	.	.	.	.
.	24a/JJ	.	.	.	.	.
8C'\J	24cc/LL	.	8a/)	-ci,	-nia	.
.	24a/	.	.	.	.	.
.	24e/JJ	.	.	.	.	.
=18	=18	=18	=18	=18	=18	=18
8BB'\L	24r	.	8g#X/	ślub-	o	.
.	24d/LL	.	.	.	.	.
.	24e/JJ	.	.	.	.	.
8B'\J	24g#X/LL	.	8dd\	-nem	we-	.
.	24e/	.	.	.	.	.
.	24d/JJ	.	.	.	.	.
8A'\L	24r	.	8cc\	wian-	-se-	.
.	24c/LL	.	.	.	.	.
.	24e/JJ	.	.	.	.	.
8AA'\J	24a/LL	.	8a\	-ku	-lu	.
.	24e/	.	.	.	.	.
.	24c/JJ	.	.	.	.	.
=19	=19	=19	=19	=19	=19	=19
!	!	!	!	!	!	!LO:DY:a
8D'\L	24r	p	8r	.	.	p
.	24d/LL	.	.	.	.	.
.	24f/JJ	.	.	.	.	.
8F'\J	24a/LL	.	16a/	Sreb-	Ba-	.
.	24f/	.	.	.	.	.
.	.	.	16g#X/	-nej	-weł-	.
.	24d/JJ	.	.	.	.	.
8D'\L	24r	.	8a/	przę-	-nia-	.
.	24d/LL	.	.	.	.	.
.	24f/JJ	.	.	.	.	.
8A'\J	24a/LL	.	8f/	-dzy	-ną	.
.	24f/	.	.	.	.	.
.	24d/JJ	.	.	.	.	.
!!LO:LB:g=original
=20	=20	=20	=20	=20	=20	=20
8E'\L	24r	.	8r	.	.	.
.	24c/LL	.	.	.	.	.
.	24e/JJ	.	.	.	.	.
8A'\J	24a/LL	.	16a/	snu-	zwi-	.
.	24e/	.	.	.	.	.
!	!	!	!	!	!	!LO:HP:a:t=dim&colon;
.	.	.	16a/	-jąc	-jam	>
!	!	!LO:HP:t=dim&colon;	!	!	!	!
.	24c/JJ	>	.	.	.	.
8F'\L	24r	.	8cc\	wi-	przę-	.
.	24c/LL	.	.	.	.	.
.	24d#X/JJ	.	.	.	.	.
8A'\J	24a/LL	.	8d#X/	-cie	-dze	.
.	24d#/	.	.	.	.	.
.	24c/JJ	.	.	.	.	.
=21	=21	=21	=21	=21	=21	=21
8E'\L	24r	.	8e/	sre-	Ba-	.
.	24c/LL	.	.	.	.	.
.	24e/JJ	.	.	.	.	.
8c'\J	24a/LL	.	8e/	-brnej	-weł-	.
.	24e/	.	.	.	.	.
.	24c/JJ	.	.	.	.	.
8B'\L	24g#X/LL	.	8g#X/	przę-	-nia-	.
.	24e/	.	.	.	.	.
.	24d/JJ	.	.	.	.	.
8A'\J	24a/LL	.	8a/	-dzy	-ną	.
.	24e/	.	.	.	.	.
.	24c/JJ	.	.	.	.	.
=22	=22	=22	=22	=22	=22	=22
8F#X'\L	24r	.	16b\LL	snu-	zwi-	.
.	24B/LL	.	.	.	.	.
.	.	.	16cc\JJ	.	.	.
.	24d#X/JJ	.	.	.	.	.
!LO:TX:b:t=poco rit.	!	!	!LO:TX:a:t=poco rit&colon;	!	!	!
8B'\J	24a/LL	.	16b\LL	-jąc	-jam	.
.	24d#/	.	.	.	.	.
.	.	.	16a\JJ	.	.	.
.	24B/JJ	.	.	.	.	.
8E'\L	24r	.	8b\L	wi-	przę-	.
.	24dn/LL	.	.	.	.	.
.	24e/JJ	.	.	.	.	.
8B'\J	24g#X/LL	.	8ee\J	.	.	.
.	24e/	.	.	.	.	.
.	24d/JJ	.	.	.	.	.
!!LO:LB:g=original
=23	=23	=23	=23	=23	=23	=23
!LO:TUP:a:problem:klamra łukowa	!	!	!	!	!	!
24A\LL	8c/ 8a	.	4a/	-cie.	-dzę.	.
24G#X\	.	.	.	.	.	.
24A\JJ	.	.	.	.	.	.
8r	24c/LL	<	.	.	.	.
.	24B/	.	.	.	.	.
.	24c/JJ	.	.	.	.	.
4r	24e/LL	.	4r	.	.	.
.	24d#X/	.	.	.	.	.
.	24e/JJ	.	.	.	.	.
.	24a/LL	.	.	.	.	.
.	24g#X/	[	.	.	.	.
.	24a/JJ	.	.	.	.	.
=24	=24	=24	=24	=24	=24	=24
8G#X'\L 8d 8f	24b/LL	.	2r	.	.	.
.	24cc/	.	.	.	.	.
.	24b/JJ	.	.	.	.	.
8A'\J 8c 8e	24a/LL	.	.	.	.	.
.	24b/	.	.	.	.	.
.	24a/JJ	.	.	.	.	.
8D#X'\L 8A 8c	24f#X/LL	.	.	.	.	.
.	24g#X/	.	.	.	.	.
.	24f#/JJ	.	.	.	.	.
8E'\J 8G#X 8B	24e/LL	.	.	.	.	.
.	24d#X/	.	.	.	.	.
.	24e/JJ	.	.	.	.	.
=25	=25	=25	=25	=25	=25	=25
!LO:TX:t=Imo.	!LO:TX:t=Imo.	!	!LO:TX:t=Imo.	!	!	!
*>B1	*>B1	*	*>B1	*	*	*
!	!	!	!LO:TX:t=segno	!	!	!
8D'\L 8G#X 8B	24fn/LL	>	2r	.	.	.
.	24g/	.	.	.	.	.
.	24f/JJ	.	.	.	.	.
8C'\J 8A	24e/LL	.	.	.	.	.
.	24d/	.	.	.	.	.
.	24c/JJ	.	.	.	.	.
8BB'\L 8A	24e/LL	.	.	.	.	.
.	24f/	.	.	.	.	.
.	24e/JJ	]	.	.	.	.
!LO:TX:t=segno	!	!	!	!	!	!
8E'\J 8G#X	24d/LL	.	.	.	.	.
.	24c/	.	.	.	.	.
!	!LO:TX:t=segno	!	!	!	!	!
.	24B/JJ	.	.	.	.	.
=26||	=26||	=26||	=26||	=26||	=26||	=26||
!LO:TX:t=2do	!LO:TX:t=2do	!	!LO:TX:t=2do	!	!	!
*>B2	*>B2	*	*>B2	*	*	*
8D'\L 8G#X 8B	24fn/LL	>	2r;	.	.	.
.	24gn/	.	.	.	.	.
.	24f/JJ	.	.	.	.	.
8C'\J 8A	24e/LL	.	.	.	.	.
.	24d/	.	.	.	.	.
.	24c/JJ	.	.	.	.	.
8BB'\L 8A	24e/LL	.	.	.	.	.
.	24f/	.	.	.	.	.
.	24e/JJ	.	.	.	.	.
16E'\Jk 16G#	24d/LL	]	.	.	.	.
.	24c/	.	.	.	.	.
16r;>	.	.	.	.	.	.
.	48B/JJk	.	.	.	.	.
.	48r;>	.	.	.	.	.
!!LO:PB:g=original
=27||	=27||	=27||	=27||	=27||	=27||	=27||
*>C	*>C	*	*>C	*	*	*
*k[f#c#g#]	*k[f#c#g#]	*	*k[f#c#g#]	*	*	*
!	!LO:TX:b:t=molto legato	!	!	!	!	!
!	!LO:TX:a:i:t=Lento	!	!LO:TX:a:t=Lento	!	!	!
!	!	!LO:DY:rj	!	!	!	!LO:DY:b:rj
4AA\ 4A	(>4c#/ 4e	p	8r	.	.	p
.	.	.	16e/	Prze-	.	.
.	.	.	16e/	-szła	.	.
4FF#\ 4F#	4A/) 4c# 4a	.	8a/	wio-	.	.
.	.	.	8a/	-sna	.	.
=28	=28	=28	=28	=28	=28	=28
4F#\ 4A	(>4c#/ 4f# 4a	.	8r	.	.	.
.	.	.	16a/	i	.	.
.	.	.	16a/	z_ko-	.	.
4C#\ 4G#	4e/) 4cc#	.	8cc#\	-le-	.	.
.	.	.	8cc#\	-i	.	.
=29	=29	=29	=29	=29	=29	=29
*^	*^	*	*	*	*	*
8BB\L 8A	8ryy	(>8dd/L	8f#\L	.	(8dd\	La-	.	.
8C#\J 8G#	8ryy	16cc#/L	8e#X\J	.	16cc#\)	.	.	.
.	.	16b/JJ	.	.	16b\	-to,	.	.
8d/L	4F#\	8b/L	8e#\L	.	8b\	je-	.	.
8c#/J	.	8a/J)	8f#\J	.	8a\	-sień	.	.
*v	*v	*	*	*	*	*	*	*
!!LO:LB:g=original
=30	=30	=30	=30	=30	=30	=30	=30
4Fn\ 4A	(>4b/	8d\L	.	8r	.	.	.
.	.	8d#X\J	.	16b\	za	.	.
.	.	.	.	16b\	nią	.	.
4E\ 4G#	8cc#/L	4e\	.	8cc#\	pę-	.	.
.	8b/J)	.	.	8b\	-dzą	.	.
=31	=31	=31	=31	=31	=31	=31	=31
*^	*	*	*	*	*	*	*
4G#/	4Dn\	8b/L	4e\	<	16r	.	.	.
.	.	.	.	.	(16b\LL	Zi-	.	.
!	!	!	!	!	!	!	!	!LO:HP:b
.	.	16cc#/L	.	.	16cc#\JJ	.	.	<
.	.	16dd/JJ	.	.	16dd\	-mo	.	.
4A/	4C#\	4ee/	4e\	[	8ee\	mo-	.	.
.	.	.	.	.	8ee\)	-ja	.	[
*v	*v	*	*	*	*	*	*	*
!!LO:LB:g=original
=32	=32	=32	=32	=32	=32	=32	=32
!	!	!	!LO:DY:rj	!	!	!	!LO:DY:b:rj
4Cn\ 4E 4A	16e/KL 16ee	4a/	f	16ee\KL	bez	.	f
!	!LO:TX:b:i:t=ten&colon;	!	!	!LO:TX:a:i:t=ten&colon;	!	!	!
.	8f#/ 8ff#	.	.	(8ff#\J	.	.	.
.	16e/Jk 16ee	.	.	16ee\)	na-	.	.
4BB\ 4A	8ee/L	4f#\ 4a	sf	8ee^\	-dzie-	.	.
.	8dd#X/J	.	.	8dd#X\	-i	.	.
=33	=33	=33	=33	=33	=33	=33	=33
*^	*	*	*	*	*	*	*
!	!	!	!	!LO:DY:rj	!	!	!	!
8.B/L	4E#X\	(>8.dd/L	4g#\	p	8r	.	.	.
!	!	!	!	!	!	!	!	!LO:DY:b:rj
.	.	.	.	.	16ddn\	Ja-	.	p
16c#/Jk	.	16cc#/Jk	.	.	16cc#\	-kąż	.	.
8d/L	4F#\	8b/L	8e#X\L	.	(8b\L	cię	.	.
8c#/J	.	8a/J)	8f#\J	.	16a,\Jk)	.	.	.
.	.	.	.	.	16a\	o-	.	.
=34	=34	=34	=34	=34	=34	=34	=34	=34
4B/	4C#\	(>8.a/L	4e\	>	(>(<8.a/	-snu-	.	.
!	!	!LO:TX:b:t=rit	!	!	!LO:TX:a:t=rit.	!	!	!
.	.	[<16e/Jk	.	.	16e#X/)	-ję	.	.
8B/L	4D\	8g#/L	8e\L]	]	8g#/	przę-	.	.
8A/J	.	8f#/J)	8f#\J	.	8f#/)	-dzą?	.	.
!!LO:LB:g=original
=35	=35	=35	=35	=35	=35	=35	=35	=35
4E\	4EE\	(>8.d/L 8.f#	4G#\	.	2r	.	.	.
.	.	16B/Jk	.	.	.	.	.	.
!LO:TX:b:t=allargando	!	!	!	!	!	!	!	!
8Fn/L	4AA\	8G#/L 8d	4ryy	.	.	.	.	.
8E/J	.	8A/J) 8c#	.	.	.	.	.	.
*v	*v	*	*	*	*	*	*	*
*	*v	*v	*	*	*	*	*
=36	=36	=36	=36	=36	=36	=36
!	!	!LO:HP:a	!	!	!	!
!	!	!LO:DY:rj	!	!	!	!
8FFn\L	8.D</L 8.G#< 8.c#<	pp >	2r	.	.	.
[<8EE\J	.	.	.	.	.	.
.	16G#</Jk	.	.	.	.	.
[<4AAA\ 4EE_<	(>[>4C#</ [>4E< 4B<	]]	.	.	.	.
=37	=37	=37	=37	=37	=37	=37
4AAA;<\] 4EE]	4C#<;/]) 4E<] 4A<	.	2r;	.	.	.
4r;>	4r;	.	.	.	.	.
==	==	==	==	==	==	==
*-	*-	*-	*-	*-	*-	*-
!!!system-decoration: s1{(s2,s3)}
!!!RDF**kern: < = below
!!!RDF**kern: > = above
!!!RDF**kern: | = vertical stroke
!!!ENC: Marta Chmielewska
!!!END: 2021-06-08
!!!ENC:Berenika Jozajtis
!!!END:2021-05-25
